svgs/duotone/window-frame.svg

<svg xmlns="http://www.w3.org/2000/svg" viewBox="0 0 512 512"><!--! Font Awesome Pro 6.4.2 by @fontawesome - https://fontawesome.com License - https://fontawesome.com/license (Commercial License) Copyright 2023 Fonticons, Inc. --><path class="fa-primary" style="fill:var(--fa-primary-color,inherit);opacity:var(--fa-primary-opacity,1);" d="M32 256V64C32 28.7 60.7 0 96 0H416c35.3 0 64 28.7 64 64V256 448c17.7 0 32 14.3 32 32s-14.3 32-32 32H416 96 32c-17.7 0-32-14.3-32-32s14.3-32 32-32V256zm384 32H280V448H416V288zm-184 0H96V448H232V288zm48-64H416V64H280V224zM232 64H96V224H232V64z"/><path class="fa-secondary" style="fill:var(--fa-secondary-color,inherit);opacity:var(--fa-secondary-opacity,.4);" d="M232 288V448H96V288H232zM96 224V64H232V224H96zM280 64H416V224H280V64zM416 288V448H280V288H416z"/></svg>

<svg xmlns="http://www.w3.org/2000/svg" viewBox="0 0 512 512"><!--! Font Awesome Pro 6.6.0 by @fontawesome - https://fontawesome.com License - https://fontawesome.com/license (Commercial License) Copyright 2024 Fonticons, Inc. --><path class="fa-secondary" style="fill:var(--fa-secondary-color,inherit);opacity:var(--fa-secondary-opacity,.4);" d="M96 64l0 160 136 0 0-160L96 64zm0 224l0 160 136 0 0-160L96 288zM280 64l0 160 136 0 0-160L280 64zm0 224l0 160 136 0 0-160-136 0z"/><path class="fa-primary" style="fill:var(--fa-primary-color,inherit);opacity:var(--fa-primary-opacity,1);" d="M32 256L32 64C32 28.7 60.7 0 96 0L416 0c35.3 0 64 28.7 64 64l0 192 0 192c17.7 0 32 14.3 32 32s-14.3 32-32 32l-64 0L96 512l-64 0c-17.7 0-32-14.3-32-32s14.3-32 32-32l0-192zm384 32l-136 0 0 160 136 0 0-160zm-184 0L96 288l0 160 136 0 0-160zm48-64l136 0 0-160L280 64l0 160zM232 64L96 64l0 160 136 0 0-160z"/></svg>
